!!!OTL: ALS ICH NUN NACH HAUSE KAM
!!!ARE: Europa, Mitteleuropa, Deutschland, Rheinland; Unter - Taunus
!!!SCT: E0900
!!!YEM: Copyright 1995, estate of Helmut Schaffrath.
**kern
*ICvox
*Ivox
*M2/4
*k[f#]
*G:
{16a
16a
=1
8a
8b
8a
8b
=2
4.a}
{8d
=3
8cc
8cc
8a
8a
=4
8b
8b
8g}
{8g
=5
8a
8a
8a
8a
=6
4.dd}
{8d
=7
8cc
8cc
8a
8a
=8
8b
8b
8g}
{8g
=9
8a
8a
8dd
8dd
=10
4b
8r}
{8a
=11
8a
8b
8a
8b
=12
4a
8r}
{8a
=13
8a
8b
8a
8b
=14
4a
8r}
{8a
=15
8a
8b
8a
8b
=16
4a
8r}
{8a
=17
8a
8b
8a
8b
=18
4a
8r}
{8d
=19
8cc
8cc
8a
8a
=20
8b
8b
8g}
{8g
=21
8a
8a
8a
8a
=22
4.dd}
{8d
=23
8cc
8cc
8a
8a
=24
8b
8b
8g}
{8g
=25
8a
8a
8dd
8dd
=26
4g
8r}
==
!!!AGN: Ehestands - Lied, betrogener Ehemann
!!!ONB: ESAC (Essen Associative Code) Database: ERK2
!!!AMT: simple duple
!!!AIN: vox
!!!EED: Helmut Schaffrath
!!!EEV: 1.0
*-
